X:12480
T:Ouliastai
S:Charles Haywood, Folk Songs of the World
M:2/4
L:1/8
Q:1/4=80
K:C
% major/mixolydian/dorian pentatonic
G>G GA |d2  cA|(Gc) AF|D2   DF |d2 (cA)|G4    |
GA (df)|F>F FD|c>A  GA|C>D (FG)|Ad (FD)|C2 z2|]


